src/images/svg/symbols/markets-stocks-and-indices/american-stocks/stocks-netflix.svg

<svg width="32" height="32" viewBox="0 0 32 32" fill="none" xmlns="http://www.w3.org/2000/svg">
<path d="M0 16C0 7.16344 7.16344 0 16 0C24.8366 0 32 7.16344 32 16C32 24.8366 24.8366 32 16 32C7.16344 32 0 24.8366 0 16Z" fill="black"/>
<g clip-path="url(#clip0_13177_23687)">
<g filter="url(#filter0_i_13177_23687)">
<path d="M17.714 15.6749C17.9653 15.6317 21.6548 27.0594 21.9959 26.9999C21.9959 26.677 21.9959 5.56867 21.9959 5.22657C21.6595 5.22656 18.2565 5.22656 17.714 5.22656C17.714 11.9249 17.5753 15.2691 17.714 15.6749Z" fill="#B11D23"/>
</g>
<g filter="url(#filter1_i_13177_23687)">
<path d="M14.2855 16.9854C14.0343 17.0287 10.3411 5.16924 10 5.22874C10 5.55168 10.0037 26.6861 10.0037 27.0282C11.7046 26.8238 12.5553 26.7444 14.2855 26.6657C14.2855 18.3013 14.4243 17.3913 14.2855 16.9854Z" fill="#B11D23"/>
</g>
<path d="M14.2857 5.22686H10.0039L17.586 26.6647C19.7168 26.7185 21.9961 27.0273 21.9961 27.0273L14.2857 5.22686Z" fill="#E61D25"/>
</g>
<defs>
<filter id="filter0_i_13177_23687" x="17.6523" y="2.22656" width="4.34375" height="24.7734" filterUnits="userSpaceOnUse" color-interpolation-filters="sRGB">
<feFlood flood-opacity="0" result="BackgroundImageFix"/>
<feBlend mode="normal" in="SourceGraphic" in2="BackgroundImageFix" result="shape"/>
<feColorMatrix in="SourceAlpha" type="matrix" values="0 0 0 0 0 0 0 0 0 0 0 0 0 0 0 0 0 0 127 0" result="hardAlpha"/>
<feOffset dy="-6"/>
<feGaussianBlur stdDeviation="1.5"/>
<feComposite in2="hardAlpha" operator="arithmetic" k2="-1" k3="1"/>
<feColorMatrix type="matrix" values="0 0 0 0 0 0 0 0 0 0 0 0 0 0 0 0 0 0 0.08 0"/>
<feBlend mode="normal" in2="shape" result="effect1_innerShadow_13177_23687"/>
</filter>
<filter id="filter1_i_13177_23687" x="10" y="5.22852" width="4.34766" height="24.7988" filterUnits="userSpaceOnUse" color-interpolation-filters="sRGB">
<feFlood flood-opacity="0" result="BackgroundImageFix"/>
<feBlend mode="normal" in="SourceGraphic" in2="BackgroundImageFix" result="shape"/>
<feColorMatrix in="SourceAlpha" type="matrix" values="0 0 0 0 0 0 0 0 0 0 0 0 0 0 0 0 0 0 127 0" result="hardAlpha"/>
<feOffset dy="4.5"/>
<feGaussianBlur stdDeviation="1.5"/>
<feComposite in2="hardAlpha" operator="arithmetic" k2="-1" k3="1"/>
<feColorMatrix type="matrix" values="0 0 0 0 0 0 0 0 0 0 0 0 0 0 0 0 0 0 0.24 0"/>
<feBlend mode="normal" in2="shape" result="effect1_innerShadow_13177_23687"/>
</filter>
<clipPath id="clip0_13177_23687">
<rect width="12" height="22.5" fill="white" transform="translate(10 4.80078)"/>
</clipPath>
</defs>
</svg>

<svg width="32" height="32" fill="none" xmlns="http://www.w3.org/2000/svg"><path d="M0 16C0 7.163 7.163 0 16 0s16 7.163 16 16-7.163 16-16 16S0 24.837 0 16Z" fill="#000"/><g clip-path="url(#a)"><g filter="url(#b)"><path d="M17.714 15.675c.251-.043 3.94 11.384 4.282 11.325V5.227h-4.282c0 6.698-.139 10.042 0 10.448Z" fill="#B11D23"/></g><g filter="url(#c)"><path d="M14.286 16.985C14.034 17.03 10.34 5.17 10 5.23l.004 21.8c1.7-.205 2.551-.285 4.282-.363 0-8.365.138-9.275 0-9.68Z" fill="#B11D23"/></g><path d="M14.286 5.227h-4.282l7.582 21.438c2.13.053 4.41.362 4.41.362l-7.71-21.8Z" fill="#E61D25"/></g><defs><filter id="b" x="17.652" y="2.227" width="4.344" height="24.773" filterUnits="userSpaceOnUse" color-interpolation-filters="sRGB"><feFlood flood-opacity="0" result="BackgroundImageFix"/><feBlend in="SourceGraphic" in2="BackgroundImageFix" result="shape"/><feColorMatrix in="SourceAlpha" values="0 0 0 0 0 0 0 0 0 0 0 0 0 0 0 0 0 0 127 0" result="hardAlpha"/><feOffset dy="-6"/><feGaussianBlur stdDeviation="1.5"/><feComposite in2="hardAlpha" operator="arithmetic" k2="-1" k3="1"/><feColorMatrix values="0 0 0 0 0 0 0 0 0 0 0 0 0 0 0 0 0 0 0.08 0"/><feBlend in2="shape" result="effect1_innerShadow_13177_23687"/></filter><filter id="c" x="10" y="5.229" width="4.348" height="24.799" filterUnits="userSpaceOnUse" color-interpolation-filters="sRGB"><feFlood flood-opacity="0" result="BackgroundImageFix"/><feBlend in="SourceGraphic" in2="BackgroundImageFix" result="shape"/><feColorMatrix in="SourceAlpha" values="0 0 0 0 0 0 0 0 0 0 0 0 0 0 0 0 0 0 127 0" result="hardAlpha"/><feOffset dy="4.5"/><feGaussianBlur stdDeviation="1.5"/><feComposite in2="hardAlpha" operator="arithmetic" k2="-1" k3="1"/><feColorMatrix values="0 0 0 0 0 0 0 0 0 0 0 0 0 0 0 0 0 0 0.24 0"/><feBlend in2="shape" result="effect1_innerShadow_13177_23687"/></filter><clipPath id="a"><path fill="#fff" transform="translate(10 4.8)" d="M0 0h12v22.5H0z"/></clipPath></defs></svg>
